X: 147
T: Missa Benedicta es Pleni Sanctus
C: Giovanni Perluigi da Palestrina
L: 1/4
M: 4/2
N: Derived from Sanctus_09_b.krn
Q: "Sanctus"
V: 1 clef=treble
V: 2 clef=treble-8
V: 3 clef=bass
K: C
[V:1] z8 | 
[V:2] z4A4 | 
[V:3] D,4F,2F,2 | 
[V:1] z8 | 
[V:2] c2c2c4 | 
[V:3] F,4E,2C,D, | 
[V:1] z8 | 
[V:2] B2G2A4 | 
[V:3] E,F,G,4^F,2 | 
[V:1] D4F2F2 | 
[V:2] GABcd2c2- | 
[V:3] G,4F,3E, | 
[V:1] F4E2CD | 
[V:2] c2B2c4- | 
[V:3] D,4C,4 | 
[V:1] EFG4^F2 | 
[V:2] c2B2A4 | 
[V:3] z8 | 
[V:1] G2E2D2G,A, | 
[V:2] G2c4B2 | 
[V:3] E,4G,2G,2 | 
[V:1] B,CDEFGA2- | 
[V:2] GABc2<d2c | 
[V:3] G,4F,2D,2 | 
[V:1] AGG4^F2 | 
[V:2] B2G2A4 | 
[V:3] E,4D,4 | 
[V:1] G4z4 | 
[V:2] GABcd4- | 
[V:3] G,,2>A,,2B,,C,D,E, | 
[V:1] z8 | 
[V:2] d2c2B2G2 | 
[V:3] F,G,2<A,2G,G,2- | 
[V:1] z4D4 | 
[V:2] A4z4 | 
[V:3] G,2^F,2G,3=F, | 
[V:1] F2F2F4 | 
[V:2] A4c2c2 | 
[V:3] D,E,F,4E,D, | 
[V:1] E2C2D4 | 
[V:2] c4B2G2 | 
[V:3] C,4G,,4 | 
[V:1] CDEFG2G,A, | 
[V:2] A4GABc | 
[V:3] z8 | 
[V:1] B,C2<D2EFG | 
[V:2] d2DEFGA2- | 
[V:3] z4D,4 | 
[V:1] A2A,2>B,2CA, | 
[V:2] AB2<c2BA2- | 
[V:3] F,2F,2F,4 | 
[V:1] B,2C2A,3B, | 
[V:2] AGG4F2 | 
[V:3] E,2C,2D,4 | 
[V:1] C4B,3C | 
[V:2] E2CDEFG2- | 
[V:3] C,D,E,F,G,2G,,A,, | 
[V:1] D4z4 | 
[V:2] GABcd2B2 | 
[V:3] B,,C,D,E,F,2G,2- | 
[V:1] z2D2E2F2 | 
[V:2] A2>B2c2d2- | 
[V:3] G,2F,2E,2D,2 | 
[V:1] G6F2 | 
[V:2] d2^c2d4- | 
[V:3] E,4D,4 | 
[V:1] D2F2E2D2- | 
[V:2] d4z4 | 
[V:3] z2D,2E,2F,2 | 
[V:1] DCB,A,G,2A,2 | 
[V:2] z8 | 
[V:3] G,6F,2 | 
[V:1] B,A,D4C2 | 
[V:2] z4G4 | 
[V:3] D,2F,2E,4 | 
[V:1] F2>D2E2C2 | 
[V:2] A2B2c4- | 
[V:3] D,4C,4 | 
[V:1] D4z2D2 | 
[V:2] c2B2G2B2 | 
[V:3] G,,8 | 
[V:1] E2F2G2FE | 
[V:2] A4z2A2 | 
[V:3] z2D,2E,2F,2 | 
[V:1] DCB,A,B,2A,2 | 
[V:2] B2>c2d4- | 
[V:3] G,6F,2 | 
[V:1] A,4z4 | 
[V:2] d2c2A2c2- | 
[V:3] D,2F,4E,D, | 
[V:1] z2G,2A,2B,2 | 
[V:2] c2B2A2G2- | 
[V:3] C,2>D,2C,2B,,2 | 
[V:1] C6B,A, | 
[V:2] G2^F2G4 | 
[V:3] A,,4G,,4- | 
[V:1] B,CDB,C2D2 | 
[V:2] z2G2A2B2 | 
[V:3] G,,4z4 | 
[V:1] E4D4 | 
[V:2] c6B2 | 
[V:3] z4G,4 | 
[V:1] z2D2E2F2 | 
[V:2] c2B2A3G | 
[V:3] A,2B,2C4- | 
[V:1] G6F2 | 
[V:2] EFG2D4 | 
[V:3] C2B,2A,3G, | 
[V:1] D2E2F4- | 
[V:2] z2G2A2B2 | 
[V:3] F,G,E,2D,4 | 
[V:1] F2E2D4 | 
[V:2] c6B2 | 
[V:3] C,4G,3F, | 
[V:1] z2D2E2F2 | 
[V:2] G2B2A4 | 
[V:3] E,2D,2C,2D,2 | 
[V:1] G6F2 | 
[V:2] z2G2A4 | 
[V:3] E,4D,4- | 
[V:1] D2F2E4 | 
[V:2] B4c4 | 
[V:3] D,4C,4 | 
[V:1] D8
[V:2] B8
[V:3] G,,8

